X: 14335
T: Galloping Hogan
R: jig
M: 6/8
K: Gmajor
|:d/c/|BGA Bcd|cde dBG|cec BdB|ABG Adc|
BGA Bcd|efg dBG|ABc ded|cAF G2:|
|:B/A/|GBd gfg|ege dBG|def gag|fdc def|
gfg fdB|cde dBG|ABc dgB|AGF G2:|

